source/icons/cheerfulness-icon.svg

<svg width="52" height="56" viewBox="0 0 52 56" fill="none" xmlns="http://www.w3.org/2000/svg">
<path fill-rule="evenodd" clip-rule="evenodd" d="M24.9731 35.2L43.1345 4L9 30.6753L24.9731 35.2ZM31.0271 24.8L12.8657 56L47.0002 29.3247L31.0271 24.8Z" fill="#F0EBFF"/>
<path fill-rule="evenodd" clip-rule="evenodd" d="M39.1345 0L5 26.6753L20.9731 31.2L8.86555 52.0001L43 25.3248L27.0269 20.8001L39.1345 0ZM40.8319 25.75L25.5143 21.4109L35.6566 3.98704L7.1681 26.2501L22.4858 30.5892L12.3435 48.013L40.8319 25.75Z" fill="#7859CF"/>
</svg>

<svg viewBox="0 0 52 56" fill="none" xmlns="http://www.w3.org/2000/svg"><path fill-rule="evenodd" clip-rule="evenodd" d="m24.97 35.2 18.16-31.2-34.13 26.68 15.97 4.52Zm6.06-10.4-18.16 31.2 34.13-26.68-15.97-4.52Z" fill="#F0EBFF"/><path fill-rule="evenodd" clip-rule="evenodd" d="m39.13 0-34.13 26.68 15.97 4.52-12.1 20.8 34.13-26.68-15.97-4.52 12.1-20.8Zm1.7 25.75-15.32-4.34 10.15-17.42-28.5 22.26 15.33 4.34-10.15 17.42 28.5-22.26Z" fill="#7859CF"/></svg>
